digital/Imbassy-X-Files/65ef0811cc67439994568a45/65ef0811cc6743999456901d_Frame-1d.svg

<svg fill="none" height="24" viewBox="0 0 24 24" width="24" xmlns="http://www.w3.org/2000/svg"><path d="m7 7h10m-10 5h10m-10 5h6m6-14h-14c-.53043 0-1.03914.21071-1.41421.58579-.37508.37507-.58579.88378-.58579 1.41421v14c0 .5304.21071 1.0391.58579 1.4142.37507.3751.88378.5858 1.41421.5858h14c.5304 0 1.0391-.2107 1.4142-.5858s.5858-.8838.5858-1.4142v-14c0-.53043-.2107-1.03914-.5858-1.41421-.3751-.37508-.8838-.58579-1.4142-.58579z" stroke="#090a0b" stroke-linecap="square" stroke-width="1.5"/></svg>

<svg width="24" height="24" viewBox="0 0 24 24" fill="none" xmlns="http://www.w3.org/2000/svg">
<path d="M7 7H17M7 12H17M7 17H13M19 3H5C4.46957 3 3.96086 3.21071 3.58579 3.58579C3.21071 3.96086 3 4.46957 3 5V19C3 19.5304 3.21071 20.0391 3.58579 20.4142C3.96086 20.7893 4.46957 21 5 21H19C19.5304 21 20.0391 20.7893 20.4142 20.4142C20.7893 20.0391 21 19.5304 21 19V5C21 4.46957 20.7893 3.96086 20.4142 3.58579C20.0391 3.21071 19.5304 3 19 3Z" stroke="#090A0B" stroke-width="1.5" stroke-linecap="square"/>
</svg>
